assets/icons/librescoot-main-battery-locked.svg

<svg xmlns="http://www.w3.org/2000/svg" width="144" height="144" fill="none" viewBox="0 0 144 144"><path fill="#fff" d="M99.8506 22H114l.31.0039C120.794 22.1681 126 27.4761 126 34c0 .1639-.004.327-.011.4893.007.1694.011.3396.011.5107v39.8066c-1.911-.5334-3.918-.8066-6-.8066-.675 0-1.342.0291-2 .0859V45.3125a11.96 11.96 0 0 1-3.69.6836L114 46H30l-.3096-.0039c-1.2917-.0327-2.5312-.2737-3.6904-.6836V120c0 2.761 2.2386 5 5 5h61v1.9l.0049.381c.0487 2.018.4855 3.946 1.2715 5.719H31l-.3359-.004c-6.9129-.175-12.4849-5.747-12.6602-12.66L18 120V35c0-.1711.0042-.3413.0107-.5107A12 12 0 0 1 18 34c0-6.5239 5.2061-11.8319 11.6904-11.9961L30 22h14.1494l10.6563-11h34.3886zM31 30c-2.5817 0-4.707 1.9565-4.9727 4.4678C26.259 36.4565 27.9491 38 30 38h84c2.051 0 3.74-1.5436 3.972-3.5322C117.706 31.9566 115.582 30 113 30h-8.968l-3.905 3.7832L96.4619 30H47.5381l-3.6651 3.7832L39.9678 30zm24.2881-8h33.4238l-2.9062-3H58.1943z"/><path fill="#fff" fill-rule="evenodd" d="M107.1 132q-2.1 0-3.6-1.5t-1.5-3.6v-19.8q0-2.1 1.5-3.6t3.6-1.5h.9v-6q0-4.95 3.525-8.475T120 84t8.475 3.525T132 96v6h.9q2.1 0 3.6 1.5t1.5 3.6v19.8q0 2.1-1.5 3.6t-3.6 1.5zM126 96v6h-12v-6q0-2.55 1.725-4.275T120 90t4.275 1.725T126 96" clip-rule="evenodd"/></svg>

<svg width="144" height="144" viewBox="0 0 144 144" fill="none" xmlns="http://www.w3.org/2000/svg">
<path d="M99.8506 22H114L114.31 22.0039C120.794 22.1681 126 27.4761 126 34C126 34.1639 125.996 34.327 125.989 34.4893C125.996 34.6587 126 34.8289 126 35V74.8066C124.089 74.2732 122.082 74 120 74C119.325 74 118.658 74.0291 118 74.0859V45.3125C116.841 45.7224 115.601 45.9634 114.31 45.9961L114 46H30L29.6904 45.9961C28.3987 45.9634 27.1592 45.7224 26 45.3125V120C26 122.761 28.2386 125 31 125H92V126.9L92.0049 127.281C92.0536 129.299 92.4904 131.227 93.2764 133H31L30.6641 132.996C23.7512 132.821 18.1792 127.249 18.0039 120.336L18 120V35C18 34.8289 18.0042 34.6587 18.0107 34.4893C18.0042 34.327 18 34.1639 18 34C18 27.4761 23.2061 22.1681 29.6904 22.0039L30 22H44.1494L54.8057 11H89.1943L99.8506 22ZM31 30C28.4183 30 26.293 31.9565 26.0273 34.4678C26.259 36.4565 27.9491 38 30 38H114C116.051 38 117.74 36.4564 117.972 34.4678C117.706 31.9566 115.582 30 113 30H104.032L100.127 33.7832L96.4619 30H47.5381L43.873 33.7832L39.9678 30H31ZM55.2881 22H88.7119L85.8057 19H58.1943L55.2881 22Z" fill="white"/>
<path fill-rule="evenodd" clip-rule="evenodd" d="M107.1 132C105.7 132 104.5 131.5 103.5 130.5C102.5 129.5 102 128.3 102 126.9V107.1C102 105.7 102.5 104.5 103.5 103.5C104.5 102.5 105.7 102 107.1 102H108V96C108 92.7 109.175 89.875 111.525 87.525C113.875 85.175 116.7 84 120 84C123.3 84 126.125 85.175 128.475 87.525C130.825 89.875 132 92.7 132 96V102H132.9C134.3 102 135.5 102.5 136.5 103.5C137.5 104.5 138 105.7 138 107.1V126.9C138 128.3 137.5 129.5 136.5 130.5C135.5 131.5 134.3 132 132.9 132H107.1ZM126 96V102H114V96C114 94.3 114.575 92.875 115.725 91.725C116.875 90.575 118.3 90 120 90C121.7 90 123.125 90.575 124.275 91.725C125.425 92.875 126 94.3 126 96Z" fill="white"/>
</svg>
